!!!COM: Frescobaldi, Girolamo
!!!CDT: 1583///-1643
!!!ONM: No. 7
!!!OTL: No. 7: Canzon Terza Basso solo
!!!OPR: Canzoni da sonare a una, due, tre et quattro, libro primo
!!!PPP: Venezia
!!!PDT: 1634
!!!URL: http://icking-music-archive.org/ByComposer/Frescobaldi.html
!!!ONB: Andrea Friggi, ed.
**kern	**kern
!Basso ad Organo	!Basso Solo
*staff2	*staff1
*clefF4	*clefF4
*k[b-]	*k[b-]
*met(C)	*met(C)
*M4/4	*M4/4
*MM120	*MM120
=1-	=1-
1G	1G
=2	=2
1GG	4GG/
.	4AA/
.	4BB-/
.	4C/
=3	=3
1D	2.D\
.	4D\
=4	=4
1E-	2.E-\
.	8D/L
.	8C/J
=5	=5
2BBn/	2BBn/
2C/	2C/
=6	=6
2.D\	2.D\
4E\	4E\
=7	=7
1F	1F
=8	=8
1BB-	1BB-
=9	=9
2FF#/	2FF#/
2GG/	2GG/
=10	=10
1AA	1AA
=11	=11
4D\	2D\
8E\L	.
8F\J	.
4G\	2r
8F\L	.
8G\J	.
=12	=12
4C/	4c\
4D\	8B-\L
.	8A\J
4G\	4G\
8A\L	8A\L
8G\J	8G\J
=13	=13
4F\	2F\
8G\L	.
8A\J	.
4B-\	2r
8A\L	.
8B-\J	.
=14	=14
4G\	4G\
8F\L	8F\L
8E\J	8E\J
4D\	4D\
8E-\L	8E-\L
8D\J	8D\J
=15	=15
4C/	4C/
4BB-/	4BB-/
2F\	2F\
=16	=16
4B-\	2BB-/
8A\L	.
8G\J	.
4F\	2r
8G\L	.
8F\J	.
=17	=17
4E\	2r
4D\	.
2A\	4AA/
.	8BB-/L
.	8C/J
=18	=18
4D\	4D\
8C/L	8C/L
8D/J	8D/J
4E-\	4E-\
4F\	4F\
=19	=19
4BB-/	2BB-/
8C/L	.
8D/J	.
4E-\	2r
8D\L	.
8E-\J	.
=20	=20
*	*clefC4
2F\	4f\
.	8e\L
.	8d\J
4C/	4c\
4D\	8d\L
.	8c\J
=21	=21
2BB-/	4B-\
.	8A/L
.	8G/J
4F\	2F/
4FF/	.
=22	=22
*	*clefF4
4BB-/	4BB-/
8C/L	8C/L
8D/J	8D/J
4E-\	4E-\
8D\L	8D\L
8E-\J	8E-\J
=23	=23
2C/	4C/
.	8BB-/L
.	8AA/J
2GG/	4GG/
.	8FF/L
.	8GG/J
=24	=24
2D\	2DD/
2AA/	2AA/
=25	=25
1D	1D
=26	=26
*M3/1	*M3/1
1.G	0.r
2A\	.
1B-	.
=27	=27
1.F	0.r
2BB-/	.
1C	.
=28	=28
0F	0.r
1FF	.
=29	=29
0.BB-	1.B-
.	2B-\
.	2A\
.	2G\
=30	=30
1.F	1.F
2D\	2D\
2E-\	2E-\
2C/	2C/
=31	=31
1.D	1.D
2BB-/	2BB-/
2C/	2C/
2AA/	2AA/
=32	=32
1.BB-	1.BB-
2BB-/	2BB-/
2C/	2C/
2D\	2D\
=33	=33
1E-	1E-
1C	1C
1F	1F
=34	=34
0BB-	0BB-
1BB-	1r
=35	=35
1.F	0.r
2G\	.
1A	.
=36	=36
0D	1r
.	1r
1D	1D
=37	=37
1.G	1.G
2A\	2A\
1B-	1B-
=38	=38
1.F	1.F
2D\	2D\
1G	1G
=39	=39
0.C	1.C
.	2c\
.	2B-\
.	2A\
=40	=40
0G	1.G
.	2G\
1D	2D\
.	2E\
=41	=41
1.F	1.F
2D\	2D\
2E-\	2E-\
2C/	2C/
=42	=42
0.D	0.D
=43	=43
*met(C)	*met(C)
*M4/4	*M4/4
1GG	1GG
=44	=44
2.G\	1r
4G\	.
=45	=45
1A	1r
=46	=46
2B-\	2r
[2BB-/	[2BB-/
=47	=47
2BB-/]	2BB-/]
2BB-/	2BB-/
=48	=48
2.F\	2.F\
4D\	4D\
=49	=49
2G\	2G\
2F#\	2F#\
=50	=50
2G\	2G\
2A\	2A\
=51	=51
1B-	1B-
=52	=52
1A	1A
=53	=53
[1D	[1D
=54	=54
2D\]	2D\]
2C/	2C/
=55	=55
1BB-	1BB-
=56	=56
1AA	1AA
=57	=57
*M6/4	*M6/4
2D\	4D\
.	4E\
4D\	4F#\
2G\	4.G\
.	8G\
4A\	4A\
=58	=58
2.B-\	4B-\
.	4D\
.	4E\
2.F\	2.F\
=59	=59
4BB-/	1.r
4C/	.
4D\	.
4E-\	.
4D\	.
4C/	.
=60	=60
2.G\	4G\
.	4A\
.	4B-\
2c\	4.c\
.	8c\
4B-\	4B-\
=61	=61
4A\	4A\
4G\	4G\
4F\	4F\
4G\	4G\
4D\	4D\
4E\	4E\
=62	=62
2.F\	2.F\
4BB-/	4BB-/
4C/	4C/
4D\	4D\
=63	=63
2E-\	4.E-\
.	8E-\
4D\	4D\
4C/	4C/
4BB-/	4BB-/
4AA/	4AA/
=64	=64
2.GG/	4GG/
.	4AA/
.	4BB-/
2C/	4.C/
.	8D\
4E-\	4E-\
=65	=65
2.D\	2.D\
2.GG/	2.GG/
=66	=66
*met(C)	*met(C)
*M4/4	*M4/4
2G\	4r
.	4G\
2E-\	2E-\
=67	=67
2D\	4r
.	4D\
2F\	2F\
=68	=68
1BB-	2BB-/
.	4r
.	4B-\
=69	=69
4.F\	4.F\
8F#\	8F#\
2G\	8G\L
.	8A\
.	8B-\
.	8G\J
=70	=70
2c\	2c\
2F\	2F\
=71	=71
4G\	1r
4GG/	.
2D\	.
=72	=72
*	*clefC4
2G\	8r
.	8G\L
.	8d\
.	8e\J
4.F\	4.f\
8D\	8f#\
=73	=73
4.G\	8g\L
.	8d\
.	8e-\
8B-\	8B-\J
4.c\	8c\L
.	8d\
.	8e-\
8G\	8G\J
=74	=74
4.A\	8A\L
.	8B-\
.	8c\
8F#\	8F#\J
4.G\	8G/L
.	8A/
.	8B-/
8D\	8D/J
=75	=75
*	*clefF4
4.E-\	8E-\L
.	8F\
.	8G\
8BBn/	8BBn\J
2C/	2C/
=76	=76
2.FF/	2.FF/
4GG/	4GG/
=77	=77
2AA/	1AA
2A\	.
=78	=78
2B-\	2r
2F#\	2F#\
=79	=79
2G\	2G\
2A\	2A\
=80	=80
1B-	1B-
=81	=81
4F\	4r
4B-\	4B-\
4A\	4A\
4G\	4G\
=82	=82
4F#\	4F#\
4Fn\	4Fn\
4E\	4E\
4E-\	4E-\
=83	=83
4.D\	4.D\
8C/	8C/
4BBn/	4BBn/
4BB-/	4BB-/
=84	=84
4AA/	4AA/
4GG/	4GG/
2D\	2D\
=85	=85
1GG	1GG
=86	=86
2.G\	1r
4F\	.
=87	=87
2E-\	1r
2D\	.
=88	=88
1C	1r
=89	=89
2.BB-/	4B-\
.	8B-\L
.	8B-\J
.	4.B-\
4B-\	.
.	8B-\
=90	=90
4A\	8A\L
.	8G\
4F\	8F\
.	8E\J
4D\	8D/L
.	8C/
4BB-/	8BB-/
.	8AA/J
=91	=91
2GG/	4GG/
.	4G\
2D\	4G\
.	4F#\
=92	=92
1GG	2G\
.	2r
=93	=93
2.D\	4D\
.	8D\L
.	8D\J
.	4.D\
4BB-/	.
.	8d\
=94	=94
4C/	8c\L
.	8B-\
2F\	8A\
.	8G\J
.	8F\L
.	8E\
4D\	8D\
.	8C\J
=95	=95
2BB-/	4BB-/
.	4B-\
2F\	4B-\
.	4A\
=96	=96
2BB-/	2B-\
2C/	2r
=97	=97
2FF/	4F\
.	8F\L
.	8F\J
2F\	4.F\
.	8c\
=98	=98
4B-\	8B-\L
.	8A\
4G\	8G\
.	8F\J
4.C/	8E/L
.	8D/
.	8C/
8BB-/	8BB-/J
=99	=99
4AA/	4AA/
4GG/	4GG/
2D\	2D\
=100	=100
2GG/	2r
2G\	8r
.	8G\L
.	8F\
.	8E\J
=101	=101
4D\	8D\L
.	8B-\
4E\	8A\
.	8G\J
4.F\	8F/L
.	8AA/
.	8BB-/
8E\	8C/J
=102	=102
4D\	2D\
4C/	.
2BB-/	8r
.	8d\L
.	8c\
.	8B-\J
=103	=103
2FF/	8A\L
.	8C\
.	8D\
.	8E\J
2F\	8F\L
.	8B-\
.	8A\
.	8G\J
=104	=104
2F\	8F\L
.	8D\
.	8E\
.	8F\J
2G\	8G/L
.	8GG/
.	8AA/
.	8BB-/J
=105	=105
2C/	8C\L
.	8c\
.	8B-\
.	8A\J
2E-\	8G\L
.	8B-\
.	8A\
.	8G\J
=106	=106
2D\	8F#/L
.	8AA/
.	8BB-/
.	8C/J
[2D\	[2D\
=107	=107
4D\]	4D\]
4C#/	4C#/
2D\	2D\
=108	=108
*M2/2	*M2/2
4.G\	2.GG/
8G\	.
4B-\	.
=109	=109
4F\	2.r
4D\	.
4G\	.
=110	=110
2C/	4.C/
.	8D\
4E-\	4E-\
=111	=111
4BB-/	4BB-/
4GG/	4GG/
4C/	4C/
=112	=112
2FF/	2FF/
4F\	4F\
=113	=113
4.B-\	4.B-\
8G\	8G\
4c\	4c\
=114	=114
2.F\	2F\
.	4A\
=115	=115
2D\	2d\
4D\	4D\
=116	=116
2G\	4.G\
.	8A\
4B-\	4B-\
=117	=117
2F\	2F\
4D\	4D\
=118	=118
4.E-\	4.E-\
8C/	8C/
4F\	4F\
=119	=119
2.BB-/	2.BB-/
=120	=120
2AA/	2.r
4GG/	.
=121	=121
4D\	4r
2C/	2C/
=122	=122
2FF/	2FF/
4FF/	4FF/
=123	=123
2GG/	4.GG/
.	8AA/
4BB-/	4BB-/
=124	=124
2AA/	2AA/
4GG/	4GG/
=125	=125
2D\	4.D\
.	8D\L
4E\	8E\
.	8F\J
=126	=126
2.G\	4.G\
.	8F\L
.	8G\
.	8A\J
=127	=127
4B-\	4B-\
2F\	2F\
=128	=128
2BB-/	2BB-/
4BB-/	4BB-/
=129	=129
4.C/	4.C/
8D\	8D\
4E-\	4E-\
=130	=130
4C/	4C/
2D\	2D\
=131	=131
1.GG	1.GG
==	==
*-	*-
!!!ENC: Craig Stuart Sapp
!!!END: 2004/12/14/
